src/categories-icons-sprite/categories/svg-cat-child-textile.svg

<svg width="24" height="32" viewBox="0 0 24 32" fill="none" xmlns="http://www.w3.org/2000/svg">
<path class="p-E57E25" d="M2.11187 13.5163C2.40354 13.5163 2.63983 13.28 2.63983 12.9883V11.4039C2.64388 7.9057 5.47887 5.07071 8.97709 5.06667H14.2579C17.7564 5.07071 20.5912 7.9057 20.5952 11.4039V12.9883C20.5952 13.28 20.8317 13.5163 21.1234 13.5163C21.4151 13.5163 21.6514 13.28 21.6514 12.9883V11.4039C21.6469 7.32259 18.3395 4.01525 14.2579 4.0105H8.97709C4.89575 4.01525 1.58818 7.32259 1.58366 11.4039V12.9883C1.58366 13.28 1.82019 13.5163 2.11187 13.5163Z" fill="#76B7E2"/>
<path class="p-F18D46" d="M11.6184 5.06678L16.1572 4.22468C17.3237 4.22468 18.2695 3.27905 18.2695 2.11234C18.2695 0.94587 17.3237 0 16.1572 0C13.746 0 11.2166 4.16133 11.146 4.30253C11.064 4.46631 11.0728 4.66077 11.1691 4.81647C11.2654 4.97217 11.4353 5.06702 11.6184 5.06678ZM16.1572 1.05617C16.7403 1.05617 17.2134 1.52899 17.2134 2.11234C17.2134 2.69569 16.7403 3.16851 16.1572 3.16851L12.5436 4.01061C13.1628 3.08542 15.0535 1.05617 16.1572 1.05617Z" fill="#76B7E2"/>
<path class="p-F1995B" d="M7.07858 4.22468L11.6174 5.06678C11.8004 5.06702 11.9704 4.97217 12.0667 4.81647C12.163 4.66077 12.1715 4.46631 12.0897 4.30253C12.0191 4.16133 9.48949 0 7.07858 0C5.91187 0 4.96624 0.94587 4.96624 2.11234C4.96624 3.27905 5.91187 4.22468 7.07858 4.22468ZM10.6936 4.01061L7.07858 3.16851C6.49523 3.16851 6.02241 2.69569 6.02241 2.11234C6.02241 1.52899 6.49523 1.05617 7.07858 1.05617C8.18634 1.05617 10.0758 3.08566 10.6936 4.01061Z" fill="#76B7E2"/>
<path class="p-F18D46" d="M16.1566 9.29157C16.4483 9.29157 16.6846 9.05504 16.6846 8.76336C16.6846 8.47169 16.4483 8.2354 16.1566 8.2354C13.9889 8.2354 12.1396 4.44883 12.1301 4.41056C12.0863 4.22514 11.9463 4.07752 11.7635 4.02451C11.5805 3.97126 11.3832 4.02047 11.247 4.15359C11.1107 4.28671 11.0565 4.48283 11.1055 4.66682C11.1526 4.85556 13.1386 9.29157 16.1566 9.29157Z" fill="#76B7E2"/>
<path class="p-F18D46" d="M7.07859 9.29145C10.0966 9.29145 12.0826 4.85545 12.1297 4.6667C12.1977 4.38501 12.0258 4.10094 11.7446 4.03058C11.4634 3.96021 11.1779 4.12947 11.1051 4.41021C11.0954 4.44824 9.27389 8.23528 7.07859 8.23528C6.78691 8.23528 6.55039 8.47157 6.55039 8.76325C6.55039 9.05493 6.78691 9.29145 7.07859 9.29145Z" fill="#76B7E2"/>
<path class="p-F0C419" d="M22.1811 12.9885H1.05726C0.473906 12.9885 0.000852585 13.4613 0.000852585 14.0447V20.382C0.000852585 23.4632 1.22509 26.4183 3.40375 28.5972C5.58265 30.7761 8.53769 32.0001 11.6192 32.0001C18.0356 32.0001 23.2373 26.7984 23.2373 20.382V14.0447C23.2373 13.4613 22.7645 12.9885 22.1811 12.9885Z" fill="#5FBEFF"/>
<path class="p-C03A2B" d="M11.6188 19.5255L11.529 19.433C11.1377 19.027 10.5983 18.7976 10.0345 18.7976C9.4706 18.7976 8.93122 19.027 8.53994 19.433C7.71602 20.2921 7.71602 21.6481 8.53994 22.5072L8.63503 22.6051L11.529 25.5815C11.5561 25.6115 11.5863 25.6388 11.6188 25.6628C11.6514 25.6388 11.6814 25.6115 11.7085 25.5815L14.6026 22.6051L14.6975 22.5074C15.5214 21.6483 15.5214 20.2924 14.6975 19.4333C14.3064 19.0272 13.7668 18.7978 13.203 18.7978C12.6393 18.7978 12.0997 19.0272 11.7085 19.4333L11.6188 19.5255Z" fill="#4D98CB"/>
<path class="p-F3D55B" d="M-0.000180244 14.0447V20.382C-0.000180244 23.4632 1.22405 26.4183 3.40272 28.5972C5.58162 30.7761 8.53666 32.0001 11.6182 32.0001V25.6628C11.5856 25.6395 11.5556 25.6129 11.5283 25.5836L8.63436 22.6051L8.53927 22.5048C7.71535 21.6459 7.71535 20.2902 8.53927 19.4313C8.93103 19.0263 9.4704 18.7976 10.0338 18.7976C10.5972 18.7976 11.1366 19.0263 11.5283 19.4313L11.6182 19.5264V12.9885H1.05623C0.473586 12.9902 0.00172138 13.4621 -0.000180244 14.0447Z" fill="#B9DFFC"/>
<path class="p-E64C3C" d="M8.53927 22.5048L8.63436 22.6051L11.5283 25.5837C11.5556 25.6129 11.5856 25.6395 11.6182 25.6628V19.5264L11.5283 19.4314C11.1366 19.0263 10.5972 18.7976 10.0338 18.7976C9.4704 18.7976 8.93103 19.0263 8.53927 19.4314C7.71535 20.2902 7.71535 21.6459 8.53927 22.5048Z" fill="#5FBEFF"/>
<path class="p-E57E25" d="M21.1234 16.1569C21.4151 16.1569 21.6514 15.9206 21.6514 15.6289V15.1007C21.6514 14.809 21.4151 14.5728 21.1234 14.5728H20.5952C20.3035 14.5728 20.0672 14.809 20.0672 15.1007C20.0672 15.3924 20.3035 15.6289 20.5952 15.6289C20.5952 15.9206 20.8317 16.1569 21.1234 16.1569Z" fill="#4D98CB"/>
<path class="p-E57E25" d="M4.75283 15.6289H5.80924C6.10068 15.6289 6.3372 15.3924 6.3372 15.1007C6.3372 14.809 6.10068 14.5728 5.80924 14.5728H4.75283C4.46115 14.5728 4.22486 14.809 4.22486 15.1007C4.22486 15.3924 4.46115 15.6289 4.75283 15.6289ZM7.92158 15.6289H8.97775C9.26942 15.6289 9.50571 15.3924 9.50571 15.1007C9.50571 14.809 9.26942 14.5728 8.97775 14.5728H7.92158C7.6299 14.5728 7.39337 14.809 7.39337 15.1007C7.39337 15.3924 7.6299 15.6289 7.92158 15.6289ZM11.0901 15.6289H12.1463C12.4379 15.6289 12.6745 15.3924 12.6745 15.1007C12.6745 14.809 12.4379 14.5728 12.1463 14.5728H11.0901C10.7984 14.5728 10.5621 14.809 10.5621 15.1007C10.5621 15.3924 10.7984 15.6289 11.0901 15.6289ZM14.2586 15.6289H15.315C15.6067 15.6289 15.843 15.3924 15.843 15.1007C15.843 14.809 15.6067 14.5728 15.315 14.5728H14.2586C13.9672 14.5728 13.7306 14.809 13.7306 15.1007C13.7306 15.3924 13.9672 15.6289 14.2586 15.6289ZM17.4273 15.6289H18.4835C18.7752 15.6289 19.0117 15.3924 19.0117 15.1007C19.0117 14.809 18.7752 14.5728 18.4835 14.5728H17.4273C17.1357 14.5728 16.8991 14.809 16.8991 15.1007C16.8991 15.3924 17.1357 15.6289 17.4273 15.6289Z" fill="#4D98CB"/>
<path class="p-E57E25" d="M2.11278 16.1569C2.40445 16.1569 2.64074 15.9206 2.64074 15.6289C2.93242 15.6289 3.16895 15.3924 3.16895 15.1007C3.16895 14.809 2.93242 14.5728 2.64074 14.5728H2.11278C1.8211 14.5728 1.58457 14.809 1.58457 15.1007V15.6289C1.58457 15.9206 1.8211 16.1569 2.11278 16.1569Z" fill="#4D98CB"/>
<path class="p-E57E25" d="M12.6415 30.3608C12.6605 30.3608 12.6795 30.3599 12.6986 30.3577C13.0608 30.319 13.421 30.2603 13.7771 30.182C13.9632 30.1431 14.1141 30.0073 14.1722 29.8264C14.2302 29.6453 14.1867 29.447 14.0578 29.3073C13.9292 29.1675 13.7352 29.1076 13.55 29.1506C13.2317 29.2205 12.9099 29.273 12.5859 29.3077C12.307 29.3379 12.1005 29.5806 12.1152 29.8607C12.1299 30.1404 12.3612 30.3601 12.6415 30.3608ZM10.5767 30.3589C10.8572 30.3589 11.0887 30.1393 11.104 29.8592C11.1189 29.579 10.9124 29.3358 10.6333 29.3056C10.3093 29.2702 9.98765 29.2169 9.66934 29.1463C9.48393 29.1016 9.28852 29.1606 9.15849 29.3006C9.0287 29.4404 8.98449 29.6396 9.04296 29.8214C9.10144 30.003 9.25334 30.1393 9.44042 30.1773C9.79628 30.2564 10.1559 30.3159 10.5182 30.3558C10.5377 30.3577 10.5572 30.3589 10.5767 30.3589ZM15.6215 29.5312C15.6985 29.5312 15.7748 29.5143 15.8445 29.4815C16.1749 29.3275 16.4968 29.1554 16.8084 28.9661C16.9741 28.8703 17.0751 28.6923 17.072 28.5009C17.0692 28.3096 16.9632 28.1348 16.7946 28.044C16.6261 27.9532 16.4217 27.9608 16.2602 28.0635C15.9814 28.2328 15.6935 28.3866 15.398 28.5245C15.1734 28.629 15.0519 28.8758 15.1057 29.1176C15.1594 29.3593 15.3738 29.5312 15.6215 29.5312ZM7.5986 29.5231C7.84583 29.5231 8.06001 29.3515 8.11397 29.1099C8.1677 28.8684 8.0467 28.6219 7.82277 28.5168C7.52777 28.3785 7.24037 28.2242 6.962 28.0545C6.80083 27.9563 6.59972 27.9516 6.43404 28.0419C6.26835 28.1325 6.16352 28.3043 6.15924 28.4931C6.15472 28.6816 6.25123 28.8582 6.41217 28.9566C6.72334 29.1461 7.04473 29.3184 7.37468 29.4729C7.44456 29.506 7.52111 29.5231 7.5986 29.5231ZM18.1748 27.7863C18.3108 27.7866 18.4415 27.7343 18.5395 27.6402C18.8028 27.3889 19.0524 27.1236 19.2873 26.8457C19.4723 26.6227 19.4428 26.2923 19.2217 26.1055C19.0004 25.9184 18.6697 25.9445 18.4807 26.1639C18.2699 26.4131 18.046 26.651 17.8099 26.8764C17.654 27.0254 17.6043 27.2543 17.6844 27.4547C17.7647 27.6549 17.9592 27.7863 18.1748 27.7863ZM5.04934 27.7742C5.26495 27.7742 5.45893 27.643 5.53927 27.4428C5.61962 27.2429 5.57018 27.014 5.41447 26.8647C5.1789 26.6391 4.95568 26.4009 4.74554 26.1513C4.55561 25.9367 4.22923 25.9127 4.01005 26.0971C3.79088 26.2816 3.75855 26.6073 3.93755 26.831C4.17194 27.1098 4.4213 27.3758 4.68421 27.6276C4.78239 27.7217 4.91361 27.7745 5.04934 27.7742ZM20.038 25.3189C20.2344 25.3191 20.4146 25.2105 20.5061 25.0367C20.6753 24.7141 20.827 24.3827 20.9606 24.0438C21.0355 23.8671 21.0086 23.6639 20.8905 23.5127C20.7723 23.3615 20.5814 23.2862 20.392 23.3161C20.2025 23.3461 20.0442 23.4763 19.9784 23.6565C19.8585 23.9598 19.7226 24.2563 19.5711 24.5451C19.4851 24.7086 19.491 24.9055 19.5864 25.0636C19.6819 25.2219 19.8533 25.3186 20.038 25.3189ZM3.19088 25.3027C3.37559 25.3025 3.54674 25.2059 3.64231 25.0479C3.73787 24.89 3.74405 24.6934 3.65847 24.5299C3.50705 24.2408 3.37178 23.9437 3.25269 23.6399C3.14334 23.3734 2.84025 23.2438 2.57187 23.3489C2.30349 23.4537 2.16871 23.7547 2.26926 24.0247C2.40214 24.3642 2.55333 24.6963 2.72235 25.0193C2.81363 25.1936 2.99405 25.3029 3.19088 25.3027ZM21.011 22.384C21.2708 22.3835 21.4919 22.1943 21.5321 21.9376C21.5886 21.5775 21.625 21.2145 21.6416 20.8503C21.6478 20.7103 21.5984 20.5736 21.5038 20.4702C21.4094 20.3668 21.2777 20.3052 21.1377 20.299C20.8489 20.2928 20.6064 20.5146 20.5864 20.8027C20.5715 21.1282 20.5389 21.4524 20.4887 21.774C20.465 21.9267 20.5092 22.0821 20.6095 22.1993C20.71 22.3165 20.8567 22.384 21.011 22.384ZM2.22314 22.3643C2.25024 22.3643 2.27734 22.3624 2.30397 22.3581C2.59232 22.3139 2.7901 22.0443 2.74588 21.7562C2.69644 21.4339 2.66434 21.1092 2.64984 20.7832C2.6294 20.4956 2.38717 20.2741 2.09882 20.2791C1.80738 20.2921 1.58179 20.5389 1.59462 20.8301C1.61079 21.194 1.64668 21.5565 1.70207 21.9164C1.74153 22.1739 1.96284 22.3641 2.22314 22.3643ZM21.1244 19.2833C21.4161 19.2833 21.6523 19.0467 21.6523 18.7551V17.72C21.6523 17.4284 21.4161 17.1918 21.1244 17.1918C20.8327 17.1918 20.5962 17.4284 20.5962 17.72V18.7551C20.5962 19.0467 20.8327 19.2833 21.1244 19.2833ZM2.11284 19.2633C2.40452 19.2633 2.64081 19.027 2.64081 18.7353V17.6998C2.64081 17.4082 2.40452 17.1719 2.11284 17.1719C1.82117 17.1719 1.58464 17.4082 1.58464 17.6998V18.7356C1.58464 19.0272 1.82117 19.2633 2.11284 19.2633Z" fill="#4D98CB"/>
</svg>

<svg width="24" height="32" fill="none" xmlns="http://www.w3.org/2000/svg"><path class="p-E57E25" d="M2.112 13.516a.528.528 0 00.528-.528v-1.584a6.345 6.345 0 016.337-6.337h5.28a6.345 6.345 0 016.338 6.337v1.584a.528.528 0 001.056 0v-1.584a7.402 7.402 0 00-7.393-7.393h-5.28a7.402 7.402 0 00-7.394 7.393v1.584c0 .292.236.528.528.528z" fill="#76B7E2"/><path class="p-F18D46" d="M11.618 5.067l4.54-.842a2.112 2.112 0 000-4.225c-2.412 0-4.941 4.161-5.012 4.303a.528.528 0 00.472.764zm4.54-4.01a1.056 1.056 0 010 2.112l-3.614.842c.619-.926 2.51-2.955 3.613-2.955z" fill="#76B7E2"/><path class="p-F1995B" d="M7.079 4.225l4.538.842a.528.528 0 00.473-.764C12.02 4.16 9.49 0 7.079 0a2.112 2.112 0 000 4.225zm3.615-.214l-3.615-.842a1.056 1.056 0 110-2.113c1.107 0 2.997 2.03 3.615 2.955z" fill="#76B7E2"/><path class="p-F18D46" d="M16.157 9.292a.528.528 0 000-1.057c-2.168 0-4.017-3.786-4.027-3.824a.528.528 0 10-1.025.256c.048.189 2.034 4.625 5.052 4.625z" fill="#76B7E2"/><path class="p-F18D46" d="M7.079 9.291c3.018 0 5.004-4.436 5.05-4.624a.528.528 0 00-1.024-.257c-.01.038-1.831 3.825-4.026 3.825a.528.528 0 100 1.056z" fill="#76B7E2"/><path class="p-F0C419" d="M22.181 12.989H1.057c-.583 0-1.056.472-1.056 1.056v6.337a11.619 11.619 0 0023.236 0v-6.337c0-.584-.472-1.056-1.056-1.056z" fill="#5FBEFF"/><path class="p-C03A2B" d="M11.619 19.526l-.09-.093a2.076 2.076 0 00-2.99 0 2.22 2.22 0 000 3.074l.096.098 2.894 2.976c.027.03.057.058.09.082a.602.602 0 00.09-.082l2.894-2.976.095-.098a2.22 2.22 0 000-3.074 2.075 2.075 0 00-2.99 0l-.09.093z" fill="#4D98CB"/><path class="p-F3D55B" d="M0 14.045v6.337A11.619 11.619 0 0011.618 32v-6.337a.6.6 0 01-.09-.08l-2.894-2.978-.095-.1a2.22 2.22 0 010-3.074 2.08 2.08 0 012.99 0l.09.095V12.99H1.055A1.06 1.06 0 000 14.044z" fill="#B9DFFC"/><path class="p-E64C3C" d="M8.54 22.505l.094.1 2.894 2.979c.028.029.058.056.09.079v-6.137l-.09-.095a2.079 2.079 0 00-2.989 0 2.22 2.22 0 000 3.074z" fill="#5FBEFF"/><path class="p-E57E25" d="M21.123 16.157a.528.528 0 00.528-.528V15.1a.528.528 0 00-.528-.528h-.528a.528.528 0 100 1.056c0 .292.237.528.528.528zM4.753 15.629h1.056a.528.528 0 000-1.056H4.753a.528.528 0 100 1.056zm3.169 0h1.056a.528.528 0 000-1.056H7.922a.528.528 0 100 1.056zm3.168 0h1.056a.528.528 0 000-1.056H11.09a.528.528 0 100 1.056zm3.169 0h1.056a.528.528 0 000-1.056h-1.056a.528.528 0 100 1.056zm3.168 0h1.056a.528.528 0 000-1.056h-1.056a.528.528 0 100 1.056zM2.113 16.157a.528.528 0 00.528-.528.528.528 0 000-1.056h-.528a.528.528 0 00-.528.528v.528c0 .292.236.528.528.528zM12.642 30.36c.019 0 .038 0 .057-.002a9.942 9.942 0 001.078-.176.529.529 0 10-.227-1.031c-.318.07-.64.122-.964.157a.528.528 0 00.056 1.053zm-2.065-.001a.528.528 0 00.056-1.053 8.93 8.93 0 01-.964-.16.528.528 0 10-.229 1.031c.356.08.716.139 1.078.179l.059.003zm5.044-.828a.524.524 0 00.223-.05c.33-.154.653-.326.964-.515a.528.528 0 10-.548-.902c-.279.169-.567.323-.862.46a.528.528 0 00.223 1.007zM7.6 29.523a.528.528 0 00.224-1.006 8.963 8.963 0 01-.861-.462.528.528 0 00-.55.902c.311.19.633.361.963.516.07.033.146.05.224.05zm10.576-1.737a.525.525 0 00.364-.146c.264-.251.513-.516.748-.794a.528.528 0 00-.806-.682c-.211.25-.435.487-.671.712a.529.529 0 00.365.91zm-13.126-.012a.528.528 0 00.365-.91 9.124 9.124 0 01-.668-.713.528.528 0 00-.808.68c.234.279.483.545.746.797.098.094.23.146.365.146zm14.989-2.455a.528.528 0 00.468-.282c.17-.323.321-.654.455-.993a.528.528 0 10-.983-.387c-.12.303-.255.6-.407.888a.528.528 0 00.467.774zm-16.847-.016a.528.528 0 00.467-.773 8.986 8.986 0 01-.405-.89.528.528 0 00-.984.385c.133.34.284.671.453.994a.528.528 0 00.469.284zm17.82-2.919c.26 0 .48-.19.521-.446.057-.36.093-.723.11-1.088a.528.528 0 00-.504-.551.541.541 0 00-.552.504c-.014.325-.047.65-.097.971a.53.53 0 00.522.61zm-18.788-.02a.528.528 0 00.523-.608 9.076 9.076 0 01-.096-.973.543.543 0 00-.551-.504.528.528 0 00-.504.551c.016.364.052.727.107 1.086.04.258.26.448.521.448zm18.901-3.08a.528.528 0 00.528-.529V17.72a.528.528 0 10-1.056 0v1.035c0 .292.237.528.528.528zm-19.011-.02a.528.528 0 00.528-.529V17.7a.528.528 0 10-1.056 0v1.036c0 .291.236.527.528.527z" fill="#4D98CB"/></svg>
